;FLAVOR:Marlin
;TIME:1807
;Filament used: 2.17961m
;Layer height: 0.2
;MINX:106.962
;MINY:105.607
;MINZ:0.2
;MAXX:128.037
;MAXY:129.389
;MAXZ:25
;TARGET_MACHINE.NAME:ELEGOO NEPTUNE 3 Pro
;Generated with Cura_SteamEngine 5.8.0
M140 S70
M105
M190 S70
M104 S240
M105
M109 S240
M82 ;absolute extrusion mode
;ELEGOO NEPTUNE 3 Pro
M220 S100 ;Set the feed speed to 100%
M221 S100 ;Set the flow rate to 100%
G90
G28 ;home
;M420 S1 Z10;Uncomment to enable progressive compensation height of 10mm
G92 E0 ;Reset Extruder
G1 Z0.45 F300
G1 X1.5 Y20 F5000.0 ;Move to start position
G1 Y120.0 F600.0 E15 ;Draw the first line
G1 X0.5 F1000.0 ;Move to side a little
G1 Y20 F600 E30 ;Draw the second line
G92 E0 ;Reset Extruder
G92 E0
G92 E0
G1 F1500 E-1
;LAYER_COUNT:125
;LAYER:0
M107
M204 S500
;MESH:jack_motor.stl
G0 F6000 X108.358 Y117.5 Z0.2
;TYPE:WALL-INNER
G1 F1500 E0
G1 F1800 X108.357 Y122.779 E0.23967
G1 X117.5 Y128.056 E0.71894
G1 X126.643 Y122.779 E1.19821
G1 X126.643 Y112.22 E1.67758
G1 X117.5 Y106.941 E2.1569
G1 X108.358 Y112.221 E2.6362
G1 X108.358 Y117.5 E2.87586
G0 F6000 X107.812 Y117.5
G1 F1800 X107.811 Y123.095 E3.12988
G1 X117.5 Y128.686 E3.63774
G1 X127.189 Y123.095 E4.14561
G1 X127.189 Y111.905 E4.65363
G1 X117.5 Y106.31 E5.16159
G1 X107.812 Y111.905 E5.6695
G1 X107.812 Y117.5 E5.92352
G1 F1500 E4.92352
G0 F6000 X107.902 Y117.5
G0 X112.962 Y117.564
G0 X113.131 Y117.5
G1 F1500 E5.92352
G1 F1800 X113.176 Y116.939 E5.94907
G1 X113.318 Y116.22 E5.98234
G1 X113.611 Y115.517 E6.01692
G1 X113.971 Y114.932 E6.04811
G1 X114.446 Y114.368 E6.08158
G1 X115.268 Y113.738 E6.1286
G1 X116.096 Y113.357 E6.16998
G1 X116.952 Y113.158 E6.20988
G1 X117.828 Y113.14 E6.24966
G1 X118.578 Y113.269 E6.28421
G1 X119.133 Y113.446 E6.31066
G1 X119.935 Y113.881 E6.35208
G1 X120.549 Y114.364 E6.38755
G1 X121.021 Y114.924 E6.4208
G1 X121.351 Y115.43 E6.44822
G1 X121.625 Y116.087 E6.48054
G1 X121.785 Y116.645 E6.50689
G1 X121.873 Y117.497 E6.54578
G1 X121.777 Y118.395 E6.58678
G1 X121.445 Y119.383 E6.6341
G1 X121.024 Y120.063 E6.67041
G1 X120.56 Y120.619 E6.70329
G1 X120.125 Y120.983 E6.72904
G1 X119.479 Y121.4 E6.76395
G1 X118.488 Y121.761 E6.81183
G1 X117.631 Y121.869 E6.85105
G1 X117.054 Y121.84 E6.87728
G1 X116.313 Y121.71 E6.91143
G1 X115.626 Y121.437 E6.94499
G1 X114.94 Y121.045 E6.98086
G1 X114.159 Y120.326 E7.02906
G1 X113.694 Y119.64 E7.06669
G1 X113.467 Y119.179 E7.09001
G1 X113.217 Y118.383 E7.12789
G1 X113.129 Y117.522 E7.16719
G1 X113.131 Y117.5 E7.16819
G0 F6000 X113.688 Y117.5
G1 F1800 X113.712 Y117.045 E7.18888
G1 X113.843 Y116.383 E7.21951
G1 X114.085 Y115.788 E7.24867
G1 X114.389 Y115.284 E7.2754
G1 X114.828 Y114.763 E7.30633
G1 X115.586 Y114.19 E7.34947
G1 X116.271 Y113.877 E7.38366
G1 X117.021 Y113.703 E7.41861
G1 X117.782 Y113.687 E7.45317
G1 X118.414 Y113.79 E7.48224
G1 X118.916 Y113.949 E7.50615
G1 X119.662 Y114.354 E7.54469
G1 X120.167 Y114.758 E7.57405
G1 X120.603 Y115.276 E7.60479
G1 X120.866 Y115.685 E7.62686
G1 X121.121 Y116.297 E7.65696
G1 X121.248 Y116.749 E7.67828
G1 X121.324 Y117.497 E7.71241
G1 X121.242 Y118.275 E7.74793
G1 X120.949 Y119.146 E7.78965
G1 X120.605 Y119.713 E7.81976
G1 X120.171 Y120.233 E7.85051
G1 X119.679 Y120.633 E7.8793
G1 X119.232 Y120.909 E7.90315
G1 X118.361 Y121.226 E7.94523
G1 X117.609 Y121.322 E7.97965
G1 X116.968 Y121.28 E8.00881
G1 X116.403 Y121.158 E8.03505
G1 X115.764 Y120.903 E8.06629
G1 X115.258 Y120.595 E8.09318
G1 X114.575 Y119.967 E8.1353
G1 X114.162 Y119.358 E8.16871
G1 X113.973 Y118.969 E8.18835
G1 X113.753 Y118.27 E8.22162
G1 X113.684 Y117.587 E8.25278
G1 X113.688 Y117.5 E8.25674
G0 F6000 X114.23 Y117.5
;TYPE:WALL-OUTER
G1 F1800 X114.243 Y117.189 E8.27087
G1 X114.377 Y116.516 E8.30202
G1 X114.541 Y116.096 E8.32249
G1 X114.807 Y115.636 E8.34662
G1 X115.224 Y115.146 E8.37583
G1 X115.859 Y114.663 E8.41205
G1 X116.428 Y114.406 E8.44039
G1 X117.118 Y114.247 E8.47254
G1 X117.763 Y114.237 E8.50183
G1 X118.25 Y114.311 E8.52419
G1 X118.719 Y114.463 E8.54657
G1 X119.389 Y114.827 E8.58119
G1 X119.768 Y115.138 E8.60345
G1 X120.209 Y115.66 E8.63447
G1 X120.389 Y115.959 E8.65032
G1 X120.629 Y116.543 E8.67898
G1 X120.705 Y116.835 E8.69268
G1 X120.773 Y117.5 E8.72303
G1 X120.709 Y118.136 E8.75205
G1 X120.437 Y118.937 E8.79046
G1 X120.186 Y119.363 E8.8129
G1 X119.768 Y119.858 E8.84232
G1 X119.392 Y120.169 E8.86447
G1 X119.009 Y120.405 E8.88489
G1 X118.234 Y120.691 E8.9224
G1 X117.561 Y120.773 E8.95318
G1 X117.074 Y120.744 E8.97533
G1 X116.582 Y120.642 E8.99814
G1 X115.989 Y120.402 E9.02718
G1 X115.609 Y120.17 E9.0474
G1 X114.991 Y119.607 E9.08535
G1 X114.63 Y119.077 E9.11446
G1 X114.488 Y118.781 E9.12937
G1 X114.287 Y118.14 E9.15987
G1 X114.228 Y117.535 E9.18747
G1 X114.23 Y117.5 E9.18906
G0 F6000 X114.238 Y117.3
G1 F1500 E8.18906
G0 F6000 X113.602 Y117.268
G0 X108.527 Y117.562
G0 X107.266 Y117.5
G1 F1500 E9.18906
G1 F1800 X107.265 Y123.41 E9.45737
G1 X117.5 Y129.316 E9.99385
G1 X127.735 Y123.41 E10.53034
G1 X127.735 Y111.59 E11.06697
G1 X117.5 Y105.68 E11.60354
G1 X107.266 Y111.59 E12.14007
G1 X107.266 Y117.5 E12.40839
G0 F6000 X107.266 Y117.7
G1 F1500 E11.40839
G0 F6000 X107.902 Y117.7
G0 X112.962 Y117.564
G0 X112.676 Y117.5
;TYPE:SKIN
G1 F1500 E12.40839
G1 F1800 X112.672 Y117.596 E12.41275
G1 X112.763 Y118.476 E12.45291
G1 X113.043 Y119.371 E12.49549
G1 X113.283 Y119.851 E12.51985
G1 X113.81 Y120.63 E12.56255
G1 X114.626 Y121.388 E12.61312
G1 X115.295 Y121.798 E12.64874
G1 X116.214 Y122.162 E12.69362
G1 X116.998 Y122.294 E12.72971
G1 X117.627 Y122.333 E12.75832
G1 X118.389 Y122.235 E12.7932
G1 X118.802 Y122.137 E12.81247
G1 X119.681 Y121.813 E12.855
G1 X120.212 Y121.485 E12.88334
G1 X120.86 Y120.974 E12.92081
G1 X121.378 Y120.359 E12.95731
G1 X121.864 Y119.583 E12.99888
G1 X122.229 Y118.488 E13.05128
G1 X122.333 Y117.5 E13.09639
G1 X122.235 Y116.531 E13.1406
G1 X122.059 Y115.927 E13.16917
G1 X121.764 Y115.225 E13.20374
G1 X121.37 Y114.62 E13.23651
G1 X120.844 Y114.004 E13.27329
G1 X120.161 Y113.475 E13.31251
G1 X119.298 Y113.011 E13.35699
G1 X118.579 Y112.783 E13.39124
G1 X117.719 Y112.68 E13.43056
G1 X116.862 Y112.701 E13.46948
G1 X115.927 Y112.923 E13.51311
G1 X115.059 Y113.315 E13.55635
G1 X114.132 Y114.022 E13.60928
G1 X113.618 Y114.628 E13.64536
G1 X113.212 Y115.275 E13.68003
G1 X112.883 Y116.055 E13.71847
G1 X112.7 Y116.954 E13.76012
G1 X112.676 Y117.5 E13.78493
G1 F1500 E12.78493
G0 F6000 X113.044 Y117.517
G0 X108.527 Y117.562
G0 X108.817 Y117.5
G1 F1500 E13.78493
G1 F1800 X108.817 Y112.49 E14.01239
G1 X117.5 Y107.476 E14.4676
G1 X126.179 Y112.49 E14.92265
G1 X126.179 Y122.514 E15.37775
G1 X117.5 Y127.52 E15.83262
G1 X108.817 Y122.514 E16.28765
G1 X108.817 Y117.5 E16.51529
G0 F6000 X108.447 Y117.499
G0 X108.447 Y122.215
G0 X109.09 Y122.216
G1 F1800 X109.417 Y122.544 E16.53631
G0 F6000 X109.095 Y123.102
G0 X108.447 Y121.443
G0 X109.09 Y121.444
G1 F1800 X111.241 Y123.595 E16.67442
G1 X111.315 Y123.669
G0 F6000 X111.006 Y124.204
G0 X112.742 Y125.206
G0 X113.065 Y124.647
G1 F1800 X109.09 Y120.672 E16.92964
G0 F6000 X109.09 Y119.9
G1 F1800 X114.889 Y125.699 E17.30196
G1 X114.963 Y125.773
G0 F6000 X114.654 Y126.309
G0 X116.389 Y127.31
G0 X116.712 Y126.75
G1 F1800 X109.09 Y119.128 E17.79134
G0 F6000 X109.09 Y118.356
G1 F1800 X117.779 Y127.044 E18.34919
G0 F6000 X118.268 Y126.762
G1 F1800 X109.09 Y117.583 E18.9385
G0 F6000 X109.09 Y116.811
G1 F1800 X118.758 Y126.479 E19.55923
G0 F6000 X119.247 Y126.197
G1 F1800 X114.973 Y121.923 E19.83365
G1 X114.899 Y121.849
G0 F6000 X115.222 Y121.317
G0 X116.381 Y121.812
G0 X116.27 Y122.448
G1 F1800 X119.737 Y125.915 E20.05625
G0 F6000 X120.227 Y125.632
G1 F1800 X117.173 Y122.578 E20.25233
G0 F6000 X117.94 Y122.573
G1 F1800 X120.717 Y125.35 E20.43063
G0 F6000 X121.206 Y125.067
G1 F1800 X118.619 Y122.48 E20.59673
G0 F6000 X119.194 Y122.283
G1 F1800 X121.696 Y124.785 E20.75737
G0 F6000 X122.185 Y124.502
G1 F1800 X119.762 Y122.078 E20.91297
G0 F6000 X120.243 Y121.787
G1 F1800 X122.675 Y124.22 E21.06915
G0 F6000 X123.165 Y123.937
G1 F1800 X120.685 Y121.458 E21.22835
G0 F6000 X121.108 Y121.108
G1 F1800 X123.655 Y123.655 E21.39188
G0 F6000 X124.144 Y123.372
G1 F1800 X121.459 Y120.687 E21.56427
G0 F6000 X121.777 Y120.233
G1 F1800 X124.634 Y123.09 E21.74771
G0 F6000 X125.123 Y122.807
G1 F1800 X122.076 Y119.759 E21.94337
G0 F6000 X122.281 Y119.192
G1 F1800 X125.613 Y122.525 E22.15734
G0 F6000 X125.906 Y122.045
G1 F1800 X122.472 Y118.612 E22.37779
G0 F6000 X122.564 Y117.931
G1 F1800 X125.906 Y121.273 E22.59236
G0 F6000 X125.906 Y120.501
G1 F1800 X122.577 Y117.172 E22.8061
G0 F6000 X122.44 Y116.263
G1 F1800 X125.906 Y119.729 E23.02864
G0 F6000 X125.906 Y118.957
G1 F1800 X121.944 Y114.995 E23.28302
G1 X121.87 Y114.921
G0 F6000 X121.349 Y115.262
G0 X119.754 Y113.681
G0 X120.063 Y113.114
G1 F1800 X115.751 Y108.802 E23.55987
G0 F6000 X115.262 Y109.085
G1 F1800 X118.718 Y112.541 E23.78177
G0 F6000 X117.822 Y112.417
G1 F1800 X114.772 Y109.367 E23.97759
G0 F6000 X114.283 Y109.65
G1 F1800 X117.053 Y112.42 E24.15544
G0 F6000 X116.391 Y112.53
G1 F1800 X113.793 Y109.932 E24.32225
G0 F6000 X113.304 Y110.215
G1 F1800 X115.779 Y112.69 E24.48116
G0 F6000 X115.248 Y112.931
G1 F1800 X112.814 Y110.497 E24.63743
G0 F6000 X112.325 Y110.78
G1 F1800 X114.752 Y113.208 E24.79329
G0 F6000 X114.314 Y113.542
G1 F1800 X111.835 Y111.063 E24.95246
G0 F6000 X111.345 Y111.345
G1 F1800 X113.886 Y113.886 E25.1156
G0 F6000 X113.534 Y114.306
G1 F1800 X110.856 Y111.628 E25.28754
G0 F6000 X110.367 Y111.911
G1 F1800 X113.216 Y114.76 E25.47047
G0 F6000 X112.931 Y115.248
G1 F1800 X109.877 Y112.194 E25.66655
G0 F6000 X109.387 Y112.476
G1 F1800 X112.7 Y115.789 E25.87926
G0 F6000 X112.535 Y116.396
G1 F1800 X109.09 Y112.95 E26.10048
G0 F6000 X109.09 Y113.723
G1 F1800 X112.42 Y117.053 E26.31429
G0 F6000 X112.421 Y117.827
G1 F1800 X109.09 Y114.495 E26.52819
G0 F6000 X109.09 Y115.267
G1 F1800 X112.554 Y118.732 E26.75063
G1 X112.628 Y118.806
G0 F6000 X113.2 Y118.629
G0 X113.616 Y119.683
G0 X113.071 Y120.021
G1 F1800 X109.09 Y116.039 E27.00626
G1 X109.016 Y115.965
G1 F1500 E26.00626
G0 F6000 X108.447 Y115.964
G0 X108.513 Y112.311
G0 X115.917 Y107.958
G0 X116.241 Y108.519
G1 F1500 E27.00626
G1 F1800 X125.906 Y118.184 E27.6268
G0 F6000 X125.906 Y117.412
G1 F1800 X116.73 Y108.236 E28.21595
G0 F6000 X117.22 Y107.954
G1 F1800 X125.906 Y116.64 E28.77364
G0 F6000 X125.906 Y115.868
G1 F1800 X118.281 Y108.242 E29.26324
G1 X118.207 Y108.168
G0 F6000 X118.518 Y107.632
G0 X120.434 Y108.739
G0 X120.109 Y109.299
G1 F1800 X125.906 Y115.096 E29.63544
G0 F6000 X125.906 Y114.324
G1 F1800 X121.938 Y110.355 E29.89024
G1 X121.864 Y110.281
G0 F6000 X122.175 Y109.744
G0 X124.091 Y110.851
G0 X123.766 Y111.412
G1 F1800 X125.906 Y113.551 E30.02761
G0 F6000 X125.906 Y112.779
G1 F1800 X125.595 Y112.468 E30.04757
G0 F6000 X125.97 Y111.821
G1 F1500 E29.04757
;MESH:NONMESH
G0 F600 X125.97 Y111.821 Z0.4
G0 F6000 X117.5 Y107.119
G0 X108.513 Y112.311
G0 X108.042 Y117.5
;TIME_ELAPSED:35.834808
;LAYER:1
M106 S85
M204 S1250
;TYPE:WALL-INNER
;MESH:jack_motor.stl
G1 F1500 E30.04757
G1 F2790 X108.042 Y122.961 E30.23829
G1 X117.5 Y128.419 E30.61964
G1 X126.958 Y122.961 E31.001
G1 X126.958 Y112.039 E31.38243
G1 X117.5 Y106.577 E31.76386
G1 X108.042 Y112.039 E32.14528
G1 X108.042 Y117.5 E32.336
M204 S750
G0 F6000 X107.622 Y117.5
M204 S1250
G1 F2790 X107.622 Y123.204 E32.5352
G1 X117.5 Y128.904 E32.93348
G1 X127.378 Y123.204 E33.33177
G1 X127.378 Y111.796 E33.73017
G1 X117.5 Y106.092 E34.12853
G1 X107.622 Y111.796 E34.52688
G1 X107.622 Y117.5 E34.72608
M204 S750
G0 F6000 X107.902 Y117.5
G0 X113.461 Y117.5
M204 S1250
G1 F2790 X113.517 Y116.699 E34.75412
G1 X113.834 Y115.757 E34.78883
G1 X114.209 Y115.143 E34.81396
G1 X114.652 Y114.611 E34.83814
G1 X115.185 Y114.175 E34.86219
G1 X115.594 Y113.922 E34.87898
G1 X116.204 Y113.654 E34.90225
G1 X116.986 Y113.477 E34.93025
G1 X117.796 Y113.455 E34.95855
G1 X118.47 Y113.568 E34.98242
G1 X118.99 Y113.73 E35.00144
G1 X119.705 Y114.097 E35.0295
G1 X120.319 Y114.584 E35.05687
G1 X120.656 Y114.971 E35.07479
G1 X121.033 Y115.52 E35.09805
G1 X121.275 Y116.043 E35.11818
G1 X121.477 Y116.703 E35.14228
G1 X121.546 Y117.492 E35.16994
G1 X121.519 Y117.974 E35.1868
G1 X121.375 Y118.687 E35.2122
G1 X121.116 Y119.317 E35.23599
G1 X120.784 Y119.865 E35.25837
G1 X120.335 Y120.399 E35.28273
G1 X119.782 Y120.838 E35.30739
G1 X119.325 Y121.12 E35.32614
G1 X118.42 Y121.451 E35.3598
G1 X117.599 Y121.555 E35.3887
G1 X116.623 Y121.458 E35.42295
G1 X115.911 Y121.223 E35.44914
G1 X115.302 Y120.907 E35.4731
G1 X114.677 Y120.41 E35.50098
G1 X114.224 Y119.877 E35.52541
G1 X113.843 Y119.256 E35.55086
G1 X113.532 Y118.341 E35.58461
G1 X113.45 Y117.66 E35.60856
G1 X113.461 Y117.5 E35.61416
M204 S750
G0 F6000 X113.879 Y117.5
M204 S1250
G1 F2790 X113.933 Y116.78 E35.63938
G1 X114.217 Y115.938 E35.67041
G1 X114.532 Y115.412 E35.69182
G1 X114.95 Y114.911 E35.71461
G1 X115.407 Y114.532 E35.73534
G1 X115.804 Y114.286 E35.75165
G1 X116.338 Y114.054 E35.77199
G1 X117.034 Y113.896 E35.79691
G1 X117.763 Y113.876 E35.82238
G1 X118.346 Y113.969 E35.843
G1 X118.804 Y114.112 E35.85975
G1 X119.474 Y114.45 E35.88596
G1 X120.028 Y114.889 E35.91065
G1 X120.311 Y115.209 E35.92556
G1 X120.673 Y115.736 E35.94789
G1 X120.892 Y116.215 E35.96629
G1 X121.062 Y116.785 E35.98706
G1 X121.124 Y117.432 E36.00976
G1 X121.113 Y117.865 E36.02488
G1 X120.97 Y118.568 E36.04994
G1 X120.752 Y119.109 E36.07031
G1 X120.462 Y119.594 E36.09004
G1 X120.035 Y120.101 E36.11319
G1 X119.52 Y120.51 E36.13616
G1 X119.085 Y120.76 E36.15368
G1 X118.317 Y121.041 E36.18224
G1 X117.557 Y121.13 E36.20896
G1 X116.705 Y121.044 E36.23887
G1 X116.055 Y120.828 E36.26279
G1 X115.528 Y120.55 E36.2836
G1 X114.974 Y120.11 E36.30831
G1 X114.508 Y119.562 E36.33343
G1 X114.223 Y119.069 E36.35331
G1 X113.944 Y118.248 E36.3836
G1 X113.866 Y117.681 E36.40358
G1 X113.879 Y117.5 E36.40992
M204 S750
G0 F6000 X114.304 Y117.5
M204 S1250
;TYPE:WALL-OUTER
G1 F2225.3 X114.346 Y116.888 E36.43129
G1 F2220 X114.593 Y116.136 E36.45894
G1 X114.854 Y115.681 E36.47726
G1 X115.234 Y115.225 E36.49798
G1 X115.629 Y114.889 E36.5161
G1 X116.014 Y114.65 E36.53192
G1 X116.454 Y114.462 E36.54863
G1 X117.069 Y114.319 E36.57068
G1 X117.751 Y114.3 E36.59451
G1 X118.222 Y114.371 E36.61114
G1 X118.66 Y114.506 E36.62715
G1 X119.233 Y114.798 E36.64961
G1 X119.748 Y115.206 E36.67255
G1 X119.948 Y115.426 E36.68294
G1 X120.313 Y115.952 E36.7053
G1 X120.508 Y116.386 E36.72191
G1 X120.65 Y116.884 E36.74
G1 X120.706 Y117.472 E36.76063
G1 X120.69 Y117.834 E36.77328
G1 X120.56 Y118.461 E36.79564
G1 X120.387 Y118.901 E36.81215
G1 X120.163 Y119.293 E36.82792
G1 X119.757 Y119.78 E36.85006
G1 X119.259 Y120.181 E36.87239
G1 X118.941 Y120.366 E36.88524
G1 X118.241 Y120.622 E36.91127
G1 X117.564 Y120.71 E36.93511
G1 X116.774 Y120.624 E36.96287
G1 X116.199 Y120.434 E36.98401
G1 X115.749 Y120.189 E37.00191
G1 X115.252 Y119.789 E37.02419
G1 X114.864 Y119.333 E37.0451
G1 X114.601 Y118.876 E37.06351
G1 X114.351 Y118.129 E37.09102
G1 X114.291 Y117.689 E37.10653
G1 F2225.3 X114.304 Y117.5 E37.11313
M204 S750
G0 F6000 X114.317 Y117.301
G1 F1500 E36.11313
G0 F6000 X113.623 Y117.25
G0 X107.902 Y117.5
G0 X107.202 Y117.5
M204 S1250
G1 F1500 E37.11313
G1 F2220 X107.202 Y123.446 E37.32078
G1 X117.5 Y129.389 E37.73601
G1 X127.798 Y123.446 E38.15124
G1 X127.798 Y111.554 E38.56655
G1 X117.5 Y105.607 E38.98185
G1 X107.202 Y111.554 E39.39715
G1 X107.202 Y117.5 E39.6048
M204 S750
G0 F6000 X107.202 Y117.7
G0 X107.902 Y117.7
G0 X113.124 Y117.5
;TYPE:SKIN
G1 F1950 X113.111 Y117.682 E39.61117
G1 X113.199 Y118.39 E39.63609
G1 X113.529 Y119.38 E39.67253
G1 X113.953 Y120.075 E39.70097
G1 X114.428 Y120.637 E39.72666
G1 X115.123 Y121.19 E39.75768
G1 X115.804 Y121.538 E39.78439
G1 X116.571 Y121.79 E39.81258
G1 X117.596 Y121.89 E39.84855
G1 X118.471 Y121.781 E39.87934
G1 X119.46 Y121.426 E39.91604
G1 X119.971 Y121.115 E39.93693
G1 X120.551 Y120.657 E39.96274
G1 X121.034 Y120.087 E39.98883
G1 X121.4 Y119.49 E40.01329
G1 X121.703 Y118.765 E40.04073
G1 X121.85 Y118.004 E40.0678
G1 X121.878 Y117.478 E40.08619
G1 X121.81 Y116.654 E40.11507
G1 X121.576 Y115.896 E40.14277
